packages/assets/static/images/icons/open-now.svg

<svg width="24" height="24" viewBox="0 0 24 24" xmlns="http://www.w3.org/2000/svg">
<path d="M20.25 22.4766H3.75C2.92313 22.4766 2.25 21.8034 2.25 20.9766V10.4784C2.25 9.65156 2.92313 8.97844 3.75 8.97844H20.25C21.0769 8.97844 21.75 9.65156 21.75 10.4784V20.9766C21.75 21.8034 21.0769 22.4766 20.25 22.4766ZM3.75 10.4784V20.9766H20.2509V10.4784H3.75Z"/>
<path d="M10.7888 18.4359C10.5966 18.4359 10.4053 18.3628 10.2581 18.2166L8.37563 16.3341C8.08313 16.0416 8.08313 15.5662 8.37563 15.2738C8.66813 14.9813 9.14344 14.9813 9.43594 15.2738L10.7888 16.6266L14.5622 12.8531C14.8547 12.5606 15.33 12.5606 15.6225 12.8531C15.915 13.1456 15.915 13.6209 15.6225 13.9134L11.3184 18.2175C11.1722 18.3637 10.98 18.4369 10.7878 18.4369L10.7888 18.4359Z"/>
<path d="M6.74908 10.3557C6.57095 10.3557 6.39189 10.2929 6.24845 10.1635C5.94002 9.88697 5.9147 9.41259 6.19127 9.10416L9.92908 4.93791C10.2056 4.62947 10.68 4.60416 10.9885 4.88072C11.2969 5.15728 11.3222 5.63166 11.0456 5.94009L7.30783 10.1063C7.1597 10.2713 6.95533 10.3557 6.74908 10.3557Z"/>
<path d="M17.25 10.3558C17.0447 10.3558 16.8413 10.2724 16.6931 10.1083L12.9581 5.96924C12.6806 5.66174 12.705 5.18736 13.0125 4.90986C13.32 4.63236 13.7944 4.65674 14.0719 4.96424L17.8069 9.1033C18.0844 9.4108 18.06 9.88517 17.7525 10.1627C17.6091 10.292 17.4291 10.3558 17.25 10.3558Z"/>
<path d="M12 3.02344C12.3984 3.02344 12.7219 3.34687 12.7219 3.74531C12.7219 4.14375 12.3984 4.46719 12 4.46719C11.6016 4.46719 11.2781 4.14375 11.2781 3.74531C11.2781 3.34687 11.6016 3.02344 12 3.02344ZM12 1.52344C10.7747 1.52344 9.77812 2.52 9.77812 3.74531C9.77812 4.97062 10.7747 5.96719 12 5.96719C13.2253 5.96719 14.2219 4.97062 14.2219 3.74531C14.2219 2.52 13.2253 1.52344 12 1.52344Z"/>
</svg>

<svg viewBox="0 0 24 24" xmlns="http://www.w3.org/2000/svg" aria-hidden="true" fill="currentColor"><path d="M20.25 22.477H3.75c-.827 0-1.5-.674-1.5-1.5V10.478c0-.826.673-1.5 1.5-1.5h16.5c.827 0 1.5.674 1.5 1.5v10.499c0 .826-.673 1.5-1.5 1.5M3.75 10.478v10.499h16.5V10.478z"/><path d="M10.789 18.436a.75.75 0 0 1-.53-.22l-1.883-1.882a.75.75 0 0 1 1.06-1.06l1.353 1.353 3.773-3.774a.75.75 0 0 1 1.06 1.06l-4.304 4.305a.75.75 0 0 1-.53.219zm-4.04-8.08a.75.75 0 0 1-.558-1.252L9.93 4.938a.75.75 0 0 1 1.117 1.002l-3.738 4.166a.75.75 0 0 1-.559.25m10.501 0a.75.75 0 0 1-.557-.248L12.958 5.97a.75.75 0 0 1 1.114-1.005l3.735 4.14a.75.75 0 0 1-.557 1.252"/><path d="M12 3.023a.722.722 0 1 1 0 1.445.722.722 0 0 1 0-1.445m0-1.5a2.224 2.224 0 0 0-2.222 2.222c0 1.226.997 2.222 2.222 2.222a2.224 2.224 0 0 0 2.222-2.222A2.224 2.224 0 0 0 12 1.523"/></svg>
